X:1
T: Lord Spencer Chichester
C:Nathaniel Gow
R:Strathspey
Q: 128
K:F
M:4/4
L:1/16
|:C2|F3G F2C2 DF3 F4|F3G A3C DG3 G4|F3G A2c2 d2f2 c2f2|c3A B3G A2F2 F2C2|
F3G F2C2 DF3 F4|F3G A3C DG3 G4|F3G A2c2 d2f2 c2f2|c3A B3G A2F2 F2c2|
f3g f2c2 df3 f4|fefg f3c df3 g4|f3g f2c2 d2f2 c2f2|c3A B3G A2F2 F3c|
fefg f3c df3 f4|fefg f3c df3 g4|f3a d3f c3d A3f|c3A G2c2 A2F2 F2:|
